packages/core/src/svgs/tokens/branded/PER.svg

<svg width="24" height="24" viewBox="0 0 24 24" fill="none" xmlns="http://www.w3.org/2000/svg">
<path d="M12 20.2857C17.0494 20.2857 21.1429 16.1923 21.1429 11.1428C21.1429 6.09338 17.0494 2 12 2C6.95057 2 2.85718 6.09338 2.85718 11.1428C2.85718 16.1923 6.95057 20.2857 12 20.2857Z" fill="url(#paint0_linear_364_9424)"/>
<path d="M2.91993 10.0571L2.89136 10.3771C4.25136 9.21712 7.65707 7.14287 11.3428 7.14287C14.3314 7.14287 16.0456 8.85712 16.5256 9.73712L16.0456 13.52L10.6799 16.48L10.2856 16.7828V9.94285C10.2856 9.65725 10.1722 9.38325 9.97016 9.18125C9.76816 8.97925 9.49416 8.86579 9.20849 8.86579C8.92281 8.86579 8.64884 8.97925 8.44684 9.18125C8.24484 9.38325 8.13135 9.65725 8.13135 9.94285V19.4286C8.81135 19.7428 9.53136 19.9771 10.2856 20.1143V18.2286C13.0628 17.8628 17.7141 16.2 17.7141 11.6171C17.7141 9.87432 16.4228 7.98857 15.7371 7.26857L12.1371 6.22287L8.08564 6.83429L4.96565 8.44001L2.91993 10.0571Z" fill="url(#paint1_linear_364_9424)"/>
<path d="M2.93688 9.83428L2.90259 10.12C4.87402 8.24569 8.53687 6.85141 11.2282 6.85141C13.9997 6.85141 15.9997 8.50855 15.9997 10.5428C15.9997 13.5257 11.594 14.9428 9.71397 15.2113V10C9.71397 9.69682 9.59356 9.40615 9.3793 9.19189C9.16495 8.97749 8.87426 8.85709 8.57115 8.85709C8.26805 8.85709 7.97737 8.97749 7.76303 9.19189C7.54871 9.40615 7.4283 9.69682 7.4283 10V20.8571C7.4283 21.1603 7.54871 21.4509 7.76303 21.6652C7.97737 21.8796 8.26805 22 8.57115 22C8.87426 22 9.16495 21.8796 9.3793 21.6652C9.59356 21.4509 9.71397 21.1603 9.71397 20.8571V17.4171C16.914 15.7143 17.714 11.9428 17.714 10.7943C17.714 9.65135 16.8626 5.99998 11.5882 5.99998C7.77115 5.99998 4.47403 8.33141 2.93688 9.83428Z" fill="url(#paint2_linear_364_9424)"/>
<defs>
<linearGradient id="paint0_linear_364_9424" x1="19.0342" y1="5.98749" x2="3.02078" y2="14.9515" gradientUnits="userSpaceOnUse">
<stop stop-color="#FD2307"/>
<stop offset="1" stop-color="#FDB106"/>
</linearGradient>
<linearGradient id="paint1_linear_364_9424" x1="18.1257" y1="2.99549" x2="9.36843" y2="20.5662" gradientUnits="userSpaceOnUse">
<stop stop-color="#E67F5E"/>
<stop offset="1" stop-color="#FCC252"/>
</linearGradient>
<linearGradient id="paint2_linear_364_9424" x1="9.53677" y1="18.6113" x2="8.2453" y2="21.7085" gradientUnits="userSpaceOnUse">
<stop stop-color="#FEFEFC"/>
<stop offset="1" stop-color="#FFC125"/>
</linearGradient>
</defs>
</svg>

<svg xmlns="http://www.w3.org/2000/svg" width="24" height="24" fill="none" viewBox="0 0 24 24">
    <path fill="url(#PER__a)" d="M12 20.286A9.143 9.143 0 1 0 12 2a9.143 9.143 0 0 0 0 18.286"/>
    <path fill="url(#PER__b)" d="m2.92 10.057-.029.32c1.36-1.16 4.766-3.234 8.452-3.234 2.988 0 4.703 1.714 5.183 2.594l-.48 3.783-5.366 2.96-.394.303v-6.84a1.077 1.077 0 1 0-2.155 0v9.486c.68.314 1.4.548 2.155.685V18.23c2.777-.366 7.428-2.029 7.428-6.612 0-1.743-1.291-3.628-1.977-4.348l-3.6-1.046-4.051.611-3.12 1.606z"/>
    <path fill="url(#PER__c)" d="m2.937 9.834-.034.286c1.971-1.874 5.634-3.269 8.325-3.269C14 6.851 16 8.51 16 10.543c0 2.983-4.406 4.4-6.286 4.668V10a1.143 1.143 0 1 0-2.286 0v10.857a1.143 1.143 0 1 0 2.286 0v-3.44c7.2-1.703 8-5.474 8-6.623 0-1.143-.851-4.794-6.126-4.794-3.817 0-7.114 2.331-8.651 3.834"/>
    <defs>
        <linearGradient id="PER__a" x1="19.034" x2="3.021" y1="5.987" y2="14.951" gradientUnits="userSpaceOnUse">
            <stop stop-color="#FD2307"/>
            <stop offset="1" stop-color="#FDB106"/>
        </linearGradient>
        <linearGradient id="PER__b" x1="18.126" x2="9.368" y1="2.995" y2="20.566" gradientUnits="userSpaceOnUse">
            <stop stop-color="#E67F5E"/>
            <stop offset="1" stop-color="#FCC252"/>
        </linearGradient>
        <linearGradient id="PER__c" x1="9.537" x2="8.245" y1="18.611" y2="21.709" gradientUnits="userSpaceOnUse">
            <stop stop-color="#FEFEFC"/>
            <stop offset="1" stop-color="#FFC125"/>
        </linearGradient>
    </defs>
</svg>
